!!!OTL: 216. Kriegslied des Mai.
!!!ODT: 1832
!!!ARE: Europa, Mitteleuropa, Deutschland
!!!SCT: B0216
!!!TXL: @@DE
!!!YEM: Copyright 1995, estate of Helmut Schaffrath.
**kern	**text
*ICvox	*
*Ivox	*
*clefG2	*
!! Mixed meters:  2/4; 3/4
*M2/4	*
*k[f#c#g#]	*
*A:	*
=1	=1
!LO:TX:a:t=Frisch bewegt.	!
{8e	Wenn
8cc#	des
8cc#	Früh-
8b	-lings
=2	=2
8e	Wa-
8b	-chen
8b/	ʒie-
8a}	-hen,
=3	=3
{8e	Ler-
8a	-che
8cc#	friſch
8a	die
=4	=4
8ee	Trom-
8cc#	-mel
4b}	rührt,
=5	=5
{8e	Ach,
8cc#	da
8cc#	möch-
8b	-te
=6	=6
8e	ich
8b	mit-
8b/	-ʒie-
8a}	-hen,
=7	=7
{8e	ach,
8a	da
8cc#	werd'
8a	ich
=8	=8
8ee	leicht
8cc#	ver-
4b}	-führt,
=9	=9
{8dd#	Hand-
8b	-geld,
8ee	Druck
8b	und
=10	=10
*M3/4	*
8dd#	Kuß
8b	ʒu
8ee	neh-
8e}	-men,
{8g#	und
8a	ich
=11	=11
*M2/4	*
8g#	kann
8e	mich
8a	gar
8b	nicht
=12	=12
8cc#	ſchä-
8a}	-men,
{8dd	und
8cc#	ich
=13	=13
8ff#	kann
8dd	mich
8cc#	gar
8b	nicht
=14	=14
(4cc#	ſchä-
4b)	.
=15	=15
4a	-men.
4r}	.
==	==
!!!AGN: Jahreszeiten - Lied, Fruehling; Krieg
!!!GTL: Jahreszeitenlieder
!!!ONB: ESAC (Essen Associative Code) Database: BOEHME
!!!AMT: irregular
!!!AIN: vox
!!!EED: Helmut Schaffrath
!!!EEV: 1.0
!!Nach einer Mel. von K. v. Holtei. (1832.)
!!@@COMMENT:"Gedicht von J. G. v. Salis-Seewis 1782. Mel. von Fr. Reichert: "Lieder fֳ¼r die Jugend 1799 S. 10."
!!@@END:
!!!Text: J. G. v. Salis-Seewis
!!!URL-scan: https://archive.org/details/BoehmeVtLieder1895/page/n199/mode/2up
!!!ENC: Anna Maria Matuszewska
!!!EEV: 2024/24/06
*-	*-
